public/images/hashed/002a4ccaea69face88e56c45dab1c236.svg

<svg xmlns="http://www.w3.org/2000/svg" width="80" height="80"><defs><linearGradient id="a" x1="0%" x2="100%" y1="100%" y2="0%"><stop offset="0%" stop-color="#C8511B"/><stop offset="100%" stop-color="#F90"/></linearGradient></defs><g fill="none" fill-rule="evenodd"><path fill="url(#a)" d="M0 0h80v80H0z"/><path fill="#FFF" d="M19 36h-2v-9c0-.366.199-.703.521-.878l11-6.009.958 1.755L19 27.593V36Zm44 0h-2v-8.407l-10.479-5.727.958-1.755 11 6.011A.998.998 0 0 1 63 27v9ZM33.508 62.871l-16-9.044a.999.999 0 0 1-.508-.87V43h2v9.373l15.492 8.756-.984 1.742Zm12.984 0-.984-1.742L61 52.373V43h2v9.957c0 .36-.194.693-.508.87l-16 9.044ZM35 26.382l5 2.5 5-2.5v-6.764l-5-2.5-5 2.5v6.764Zm-9.942 8.576 14.944 7.911 14.94-7.911-10.44-6.091L41 30.618V35h-2v-4.382l-3.502-1.751-10.44 6.091Zm-.069 10.972 15.01 8.032 15.012-8.032-7.55-4.748L41 44.603 41.001 47h-2L39 44.601l-6.461-3.42-7.55 4.749ZM39.001 66 39 55.696l-16.472-8.814a1 1 0 0 1-.06-1.729l8.031-5.052-7.967-4.217a1.001 1.001 0 0 1-.036-1.748l10.886-6.35A1 1 0 0 1 33 27v-8c0-.379.214-.725.553-.895l6-3c.281-.14.613-.14.894 0l6 3c.339.17.553.516.553.895v8a1 1 0 0 1-.382.786l10.886 6.35a1.002 1.002 0 0 1-.036 1.748l-7.967 4.218 8.031 5.051a1 1 0 0 1-.06 1.729L41 55.695 41.001 66h-2Z"/></g></svg>

<?xml version="1.0" encoding="UTF-8"?>
<svg width="80px" height="80px" viewBox="0 0 80 80" version="1.1" xmlns="http://www.w3.org/2000/svg" xmlns:xlink="http://www.w3.org/1999/xlink">
    <!-- Generator: Sketch 64 (93537) - https://sketch.com -->
    <title>Icon-Architecture/64/Arch_AWS-Elemental-MediaTailor_64</title>
    <desc>Created with Sketch.</desc>
    <defs>
        <linearGradient x1="0%" y1="100%" x2="100%" y2="0%" id="linearGradient-1">
            <stop stop-color="#C8511B" offset="0%"></stop>
            <stop stop-color="#FF9900" offset="100%"></stop>
        </linearGradient>
    </defs>
    <g id="Icon-Architecture/64/Arch_AWS-Elemental-MediaTailor_64" stroke="none" stroke-width="1" fill="none" fill-rule="evenodd">
        <g id="Icon-Architecture-BG/64/Media-Services" fill="url(#linearGradient-1)">
            <rect id="Rectangle" x="0" y="0" width="80" height="80"></rect>
        </g>
        <path d="M19,36 L17,36 L17,27 C17,26.634 17.199,26.297 17.521,26.122 L28.521,20.113 L29.479,21.868 L19,27.593 L19,36 Z M63,36 L61,36 L61,27.593 L50.521,21.866 L51.479,20.111 L62.479,26.122 C62.801,26.297 63,26.634 63,27 L63,36 Z M33.508,62.871 L17.508,53.827 C17.194,53.65 17,53.317 17,52.957 L17,43 L19,43 L19,52.373 L34.492,61.129 L33.508,62.871 Z M46.492,62.871 L45.508,61.129 L61,52.373 L61,43 L63,43 L63,52.957 C63,53.317 62.806,53.65 62.492,53.827 L46.492,62.871 Z M35,26.382 L40,28.882 L45,26.382 L45,19.618 L40,17.118 L35,19.618 L35,26.382 Z M25.058,34.958 L40.002,42.869 L54.942,34.958 L44.502,28.867 L41,30.618 L41,35 L39,35 L39,30.618 L35.498,28.867 L25.058,34.958 Z M24.989,45.93 L39.999,53.962 L55.011,45.93 L47.461,41.182 L41,44.603 L41.001,47 L39.001,47 L39,44.601 L32.539,41.181 L24.989,45.93 Z M39.001,66 L39,55.696 L22.528,46.882 C22.214,46.713 22.013,46.391 22.001,46.035 C21.988,45.679 22.166,45.343 22.468,45.153 L30.499,40.101 L22.532,35.884 C22.211,35.714 22.008,35.384 21.999813,35.021 C21.993,34.658 22.183,34.319 22.496,34.136 L33.382,27.786 C33.144,27.599 33,27.311 33,27 L33,19 C33,18.621 33.214,18.275 33.553,18.105 L39.553,15.105 C39.834,14.965 40.166,14.965 40.447,15.105 L46.447,18.105 C46.786,18.275 47,18.621 47,19 L47,27 C47,27.311 46.856,27.599 46.618,27.786 L57.504,34.136 C57.817,34.319 58.007,34.658 58.000187,35.021 C57.992,35.383 57.789,35.714 57.468,35.884 L49.501,40.102 L57.532,45.153 C57.834,45.343 58.012,45.679 57.999,46.035 C57.987,46.391 57.786,46.714 57.472,46.882 L41,55.695 L41.001,66 L39.001,66 Z" id="AWS-Elemental-MediaTailor_Icon_64_Squid" fill="#FFFFFF"></path>
    </g>
</svg>
